X: 5318
T: Bruce Gandy's Farewell To The Iron Horse
R: jig
M: 6/8
K: Amixolydian
|:A>Bc B2G|c<ee d>cd|e2A A>Bc|d>Ac B2G|
A>Bc B2G|c<ee d>cd|e2A G>AB|A3 A2e:|
|:a2g e<dc|A>Bc d>cd|e<ag e>dc|d>cA G2e|
[1 a2g e<dc|A>Bc d>cd|e2A G>AB|A3 A2e:|
[2 A>Bc B2G|c<ee d>cd|e2A G>AB|A3 A2e||
|:A>Bc c>Bc|e>cA A2A|G>AB B>AB|d<ge d>BG|
A>Bc c>Bc|d>cd e<gf|e2A G>AB|A3 A2e:|
|:a>ge g<ae|g>ed e<gf|e2A A>Bc|d>Ac B2G|
[1 a>ge g<ae|g>ed e<gf|e2A G>AB|A3 A2e:|
[2 A>Bc B<GA|c>de d<gf|e2A G>AB|A3 A2||

